public/prestige-logo.svg

<svg width="502" height="147" viewBox="0 0 502 147" fill="none" xmlns="http://www.w3.org/2000/svg">
<path d="M44.287 56.7216L42.0087 83.0053H69.1726C72.6776 83.0053 73.9044 79.2672 74.0796 77.3981C74.6054 71.9077 75.6569 59.9807 75.6569 56.1959C75.6569 52.411 73.2034 51.348 71.9766 51.2896H50.0702C46.1446 51.2896 44.287 54.9109 44.287 56.7216Z" fill="black"/>
<path d="M381.47 51.64H359.563C354.131 51.8153 354.306 58.9995 353.955 64.6067C353.675 69.0924 356.409 70.3307 357.811 70.3891C363.828 70.4475 376.703 70.4942 380.068 70.2139C383.432 69.9335 384.975 66.8262 385.325 65.3076L386.026 55.6702C385.886 52.3059 382.93 51.5816 381.47 51.64Z" fill="black"/>
<path fill-rule="evenodd" clip-rule="evenodd" d="M1 102.105L12.3913 17.8216C12.7418 15.7189 16.0716 9.69116 26.5866 9.4108C37.1017 9.13044 339.409 3.68678 489.249 1C493.455 1.17522 502.393 4.67972 500.816 19.7491C499.414 35.4492 493.805 82.246 491.177 103.682C491.177 107.77 488.057 115.983 475.579 116.123C463.102 116.263 419.324 116.181 398.995 116.123C399.228 109.347 396.331 95.6565 382.872 95.0958C369.412 94.5351 360.556 94.5117 357.811 94.5701C353.605 93.3435 355.182 86.8252 357.986 86.685L382.346 86.3345C389.122 85.2248 402.885 79.8512 403.727 67.235C403.928 64.2202 404.186 61.6345 404.411 59.3908L404.411 59.389L404.411 59.3879C405.36 49.8976 405.697 46.5298 398.469 42.7035L406.881 40.7761L407.757 31.6644L360.79 31.3139C353.525 31.3139 336.605 39.199 335.203 56.0206C333.801 72.8422 337.131 78.4494 340.636 80.5521C333.626 85.4584 321.884 105.784 348.172 111.567L376.563 112.093C377.614 112.034 379.752 112.618 379.892 115.422L69.6983 114.195C61.8617 121.688 55.582 128.949 50.6871 134.609C35.5501 152.111 33.6551 154.302 39.9057 100.703H69.6983C76.1826 99.3596 89.8522 93.1683 92.6562 79.1503L94.9345 53.217C94.8761 46.3248 90.7986 32.3653 74.9559 31.6644H49.7197C42.5929 31.4891 27.4979 38.5682 25.5351 55.6702L19.7518 114.195C13.6181 114.896 1.5608 112.338 1 102.105ZM206.219 100.703L207.796 82.1291C193.951 82.0707 165.315 81.9189 161.53 81.7787C157.744 81.6385 157.616 76.9308 158.025 74.5945H208.672C209.14 70.2722 210.109 58.8593 210.25 47.7851C210.39 36.7108 197.339 31.9564 190.797 31.6644H165.736C151.295 31.6644 143.713 45.7992 141.726 52.8666C141.493 56.079 140.745 65.9384 139.623 79.676C138.502 93.4136 151.19 99.418 157.674 100.703H206.219ZM159.953 58.4738H191.322C191.731 55.8454 191.568 50.5887 187.642 50.5887H164.86C163.224 50.5887 159.953 52.1657 159.953 58.4738ZM94.9345 100.703H114.037L118.243 55.1445C118.885 53.5091 120.802 50.2382 123.325 50.2382H136.469L138.221 31.6644H124.201C117.834 31.6644 104.503 36.045 100.017 53.5675L94.9345 100.703ZM226.898 82.1291H212.177L210.25 100.703C261.807 104.865 251.635 72.0775 248.153 60.8537C247.824 59.7929 247.555 58.9247 247.403 58.2985C246.001 52.5161 250.44 50.4718 252.485 50.2382H266.68L268.082 31.6644H249.331C220.94 31.6644 227.364 58.4393 230.541 69.2128C231.31 71.8237 231.853 73.8473 231.805 74.9449C231.63 78.9751 229.177 82.1291 226.898 82.1291ZM308.741 31.6644L306.813 49.3621H289.288L286.659 77.2228C286.425 78.683 286.834 81.6385 290.339 81.7787C293.844 81.9189 300.562 81.8371 303.483 81.7787L302.081 100.878L287.009 100.528C279.766 100.002 265.804 94.0795 267.907 74.5945C270.01 55.1095 272.639 28.5103 273.69 17.6464L292.617 17.2959L291.04 31.6644H308.741ZM334.152 17.4711H315.4L314.173 27.2837H333.276L334.152 17.4711ZM313.648 34.468H332.049L325.74 100.528L306.813 100.878L313.648 34.468ZM426.684 100.703H475.229L476.806 82.1291C462.961 82.0707 434.325 81.9189 430.54 81.7787C426.755 81.6385 426.626 76.9308 427.035 74.5945H477.682C478.15 70.2722 479.119 58.8593 479.26 47.7851C479.4 36.7108 466.35 31.9564 459.807 31.6644H434.746C420.305 31.6644 412.723 45.7992 410.737 52.8666C410.503 56.079 409.755 65.9384 408.634 79.676C407.512 93.4136 420.2 99.418 426.684 100.703ZM456.652 50.5887H433.87C432.234 50.5887 428.963 52.1657 428.963 58.4738L460.333 58.649C460.625 55.9622 460.298 50.5887 456.652 50.5887Z" fill="black"/>
<path d="M42.0087 83.0053L44.287 56.7216C44.287 54.9109 46.1446 51.2896 50.0702 51.2896M42.0087 83.0053C49.6029 83.0053 65.6676 83.0053 69.1726 83.0053M42.0087 83.0053H69.1726M50.0702 51.2896C53.9959 51.2896 65.9597 51.2896 71.9766 51.2896M50.0702 51.2896H71.9766M71.9766 51.2896C73.2034 51.348 75.6569 52.411 75.6569 56.1959C75.6569 59.9807 74.6054 71.9077 74.0796 77.3981C73.9044 79.2672 72.6776 83.0053 69.1726 83.0053M123.325 50.2382C120.802 50.2382 118.885 53.5091 118.243 55.1445L114.037 100.703H94.9345L100.017 53.5675C104.503 36.045 117.834 31.6644 124.201 31.6644H138.221L136.469 50.2382M123.325 50.2382C125.849 50.2382 133.139 50.2382 136.469 50.2382M123.325 50.2382H136.469M165.736 31.6644C151.295 31.6644 143.713 45.7992 141.726 52.8666C141.493 56.079 140.745 65.9384 139.623 79.676C138.502 93.4136 151.19 99.418 157.674 100.703H206.219L207.796 82.1291C193.951 82.0707 165.315 81.9189 161.53 81.7787C157.744 81.6385 157.616 76.9308 158.025 74.5945H208.672C209.14 70.2722 210.109 58.8593 210.25 47.7851C210.39 36.7108 197.339 31.9564 190.797 31.6644M165.736 31.6644C180.177 31.6644 188.46 31.6644 190.797 31.6644M165.736 31.6644H190.797M187.642 50.5887C191.568 50.5887 191.731 55.8454 191.322 58.4738H159.953C159.953 52.1657 163.224 50.5887 164.86 50.5887M187.642 50.5887C183.717 50.5887 170.818 50.5887 164.86 50.5887M187.642 50.5887H164.86M1 102.105L12.3913 17.8216C12.7418 15.7189 16.0716 9.69116 26.5866 9.4108C37.1017 9.13044 339.409 3.68678 489.249 1C493.455 1.17522 502.393 4.67972 500.816 19.7491C499.414 35.4492 493.805 82.246 491.177 103.682C491.177 107.77 488.057 115.983 475.579 116.123C463.102 116.263 419.324 116.181 398.995 116.123C399.228 109.347 396.331 95.6565 382.872 95.0958C369.412 94.5351 360.556 94.5117 357.811 94.5701C353.605 93.3435 355.182 86.8252 357.986 86.685L382.346 86.3345C389.122 85.2248 402.885 79.8512 403.727 67.235C403.928 64.2202 404.186 61.6345 404.411 59.3908L404.411 59.389L404.411 59.3879C405.36 49.8976 405.697 46.5298 398.469 42.7035L406.881 40.7761L407.757 31.6644L360.79 31.3139C353.525 31.3139 336.605 39.199 335.203 56.0206C333.801 72.8422 337.131 78.4494 340.636 80.5521C333.626 85.4584 321.884 105.784 348.172 111.567L376.563 112.093C377.614 112.034 379.752 112.618 379.892 115.422L69.6983 114.195C61.8617 121.688 55.582 128.949 50.6871 134.609C35.5501 152.111 33.6551 154.302 39.9057 100.703H69.6983C76.1826 99.3596 89.8522 93.1683 92.6562 79.1503L94.9345 53.217C94.8761 46.3248 90.7986 32.3653 74.9559 31.6644H49.7197C42.5929 31.4891 27.4979 38.5682 25.5351 55.6702L19.7518 114.195C13.6181 114.896 1.5608 112.338 1 102.105ZM212.177 82.1291H226.898C229.177 82.1291 231.63 78.9751 231.805 74.9449C231.853 73.8473 231.31 71.8237 230.541 69.2128C227.364 58.4393 220.94 31.6644 249.331 31.6644H268.082L266.68 50.2382H252.485C250.44 50.4718 246.001 52.5161 247.403 58.2985C247.555 58.9247 247.824 59.7929 248.153 60.8537C251.635 72.0775 261.807 104.865 210.25 100.703L212.177 82.1291ZM308.741 31.6644L306.813 49.3621H289.288L286.659 77.2228C286.425 78.683 286.834 81.6385 290.339 81.7787C293.844 81.9189 300.562 81.8371 303.483 81.7787L302.081 100.878L287.009 100.528C279.766 100.002 265.804 94.0795 267.907 74.5945C270.01 55.1095 272.639 28.5103 273.69 17.6464L292.617 17.2959L291.04 31.6644H308.741ZM315.4 17.4711H334.152L333.276 27.2837H314.173L315.4 17.4711ZM313.648 34.468H332.049L325.74 100.528L306.813 100.878L313.648 34.468ZM475.229 100.703H426.684C420.2 99.418 407.512 93.4136 408.634 79.676C409.755 65.9384 410.503 56.079 410.737 52.8666C412.723 45.7992 420.305 31.6644 434.746 31.6644H459.807C466.35 31.9564 479.4 36.7108 479.26 47.7851C479.119 58.8593 478.15 70.2722 477.682 74.5945H427.035C426.626 76.9308 426.755 81.6385 430.54 81.7787C434.325 81.9189 462.961 82.0707 476.806 82.1291L475.229 100.703ZM456.652 50.5887H433.87C432.234 50.5887 428.963 52.1657 428.963 58.4738L460.333 58.649C460.625 55.9622 460.298 50.5887 456.652 50.5887ZM359.563 51.64H381.47C382.93 51.5816 385.886 52.3059 386.026 55.6702L385.325 65.3076C384.975 66.8262 383.432 69.9335 380.068 70.2139C376.703 70.4942 363.828 70.4475 357.811 70.3891C356.409 70.3307 353.675 69.0924 353.955 64.6067C354.306 58.9995 354.131 51.8153 359.563 51.64Z" stroke="black"/>
</svg>

<svg width="502" height="147" fill="none" xmlns="http://www.w3.org/2000/svg"><path d="m44.287 56.722-2.278 26.283h27.164c3.505 0 4.731-3.738 4.907-5.607.525-5.49 1.577-17.417 1.577-21.202s-2.454-4.848-3.68-4.906H50.07c-3.925 0-5.783 3.62-5.783 5.432ZM381.47 51.64h-21.907c-5.432.175-5.257 7.36-5.608 12.967-.28 4.485 2.454 5.724 3.856 5.782 6.017.059 18.892.105 22.257-.175 3.364-.28 4.907-3.388 5.257-4.906l.701-9.638c-.14-3.364-3.096-4.088-4.556-4.03Z" fill="#000"/><path fill-rule="evenodd" clip-rule="evenodd" d="m1 102.105 11.391-84.283c.35-2.103 3.68-8.13 14.196-8.411C37.102 9.13 339.409 3.687 489.249 1c4.206.175 13.144 3.68 11.567 18.75-1.402 15.7-7.011 62.496-9.639 83.932 0 4.088-3.12 12.301-15.598 12.441-12.477.14-56.255.058-76.584 0 .233-6.776-2.664-20.467-16.123-21.027-13.46-.56-22.316-.584-25.061-.526-4.206-1.226-2.629-7.745.175-7.885l24.36-.35c6.776-1.11 20.539-6.484 21.381-19.1.201-3.015.459-5.6.684-7.844v-.003c.949-9.49 1.286-12.858-5.942-16.684l8.412-1.928.876-9.112-46.967-.35c-7.265 0-24.185 7.885-25.587 24.707-1.402 16.821 1.928 22.428 5.433 24.531-7.01 4.906-18.752 25.232 7.536 31.015l28.391.526c1.051-.059 3.189.525 3.329 3.329l-310.194-1.227c-7.836 7.493-14.116 14.754-19.01 20.414-15.138 17.502-17.033 19.693-10.782-33.906h29.792c6.485-1.343 20.154-7.535 22.958-21.553l2.278-25.933c-.058-6.892-4.135-20.852-19.978-21.553H49.72c-7.127-.175-22.222 6.904-24.185 24.006l-5.783 58.525c-6.134.701-18.191-1.857-18.752-12.09Zm205.219-1.402 1.577-18.574c-13.845-.058-42.481-.21-46.266-.35-3.786-.14-3.914-4.848-3.505-7.184h50.647c.468-4.323 1.437-15.736 1.578-26.81.14-11.074-12.911-15.829-19.453-16.12h-25.061c-14.441 0-22.023 14.134-24.01 21.202-.233 3.212-.981 13.071-2.103 26.809-1.121 13.738 11.567 19.742 18.051 21.027h48.545Zm-46.266-42.23h31.369c.409-2.628.246-7.884-3.68-7.884H164.86c-1.636 0-4.907 1.577-4.907 7.885Zm-65.019 42.23h19.103l4.206-45.559c.642-1.635 2.559-4.906 5.082-4.906h13.144l1.752-18.574h-14.02c-6.367 0-19.698 4.381-24.184 21.904l-5.082 47.135Zm131.964-18.574h-14.721l-1.927 18.574c51.557 4.162 41.385-28.626 37.903-39.85-.329-1.06-.598-1.928-.75-2.555-1.402-5.782 3.037-7.826 5.082-8.06h14.195l1.402-18.574h-18.751c-28.391 0-21.967 26.775-18.79 37.549.769 2.61 1.312 4.634 1.264 5.732-.175 4.03-2.628 7.184-4.907 7.184Zm81.843-50.465-1.928 17.698h-17.525l-2.629 27.86c-.234 1.461.175 4.416 3.68 4.557 3.505.14 10.223.058 13.144 0l-1.402 19.099-15.072-.35c-7.243-.526-21.205-6.449-19.102-25.934 2.103-19.484 4.732-46.084 5.783-56.948l18.927-.35-1.577 14.368h17.701Zm25.411-14.193H315.4l-1.227 9.813h19.103l.876-9.813Zm-20.504 16.997h18.401l-6.309 66.06-18.927.35 6.835-66.41Zm113.036 66.235h48.545l1.577-18.574c-13.845-.058-42.481-.21-46.266-.35-3.785-.14-3.914-4.848-3.505-7.184h50.647c.468-4.323 1.437-15.736 1.578-26.81.14-11.074-12.91-15.829-19.453-16.12h-25.061c-14.441 0-22.023 14.134-24.009 21.202a3597.76 3597.76 0 0 1-2.103 26.809c-1.122 13.738 11.566 19.742 18.05 21.027Zm29.968-50.114H433.87c-1.636 0-4.907 1.577-4.907 7.885l31.37.175c.292-2.687-.035-8.06-3.681-8.06Z" fill="#000"/><path d="m42.009 83.005 2.278-26.283c0-1.811 1.858-5.432 5.783-5.432M42.01 83.005h27.164m-27.164 0h27.164M50.07 51.29h21.907m-21.907 0h21.907m0 0c1.226.058 3.68 1.121 3.68 4.906 0 3.785-1.052 15.712-1.577 21.202-.176 1.87-1.402 5.607-4.907 5.607m54.152-32.767c-2.523 0-4.44 3.271-5.082 4.907l-4.206 45.558H94.934l5.083-47.136c4.486-17.522 17.817-21.903 24.184-21.903h14.02l-1.752 18.574m-13.144 0h13.144m-13.144 0h13.144m29.267-18.574c-14.441 0-22.023 14.135-24.01 21.203-.233 3.212-.981 13.071-2.103 26.809-1.121 13.738 11.567 19.742 18.051 21.027h48.545l1.577-18.574c-13.845-.058-42.481-.21-46.266-.35-3.786-.14-3.914-4.848-3.505-7.184h50.647c.468-4.323 1.437-15.736 1.578-26.81.14-11.074-12.911-15.829-19.453-16.12m-25.061 0h25.061m-25.061 0h25.061m-3.155 18.924c3.926 0 4.089 5.256 3.68 7.885h-31.369c0-6.308 3.271-7.885 4.907-7.885m22.782 0H164.86m22.782 0H164.86M1 102.105l11.391-84.283c.35-2.103 3.68-8.13 14.196-8.411C37.102 9.13 339.409 3.687 489.249 1c4.206.175 13.144 3.68 11.567 18.75-1.402 15.7-7.011 62.496-9.639 83.932 0 4.088-3.12 12.301-15.598 12.441-12.477.14-56.255.058-76.584 0 .233-6.776-2.664-20.467-16.123-21.027-13.46-.56-22.316-.584-25.061-.526-4.206-1.226-2.629-7.745.175-7.885l24.36-.35c6.776-1.11 20.539-6.484 21.381-19.1.201-3.015.459-5.6.684-7.844v-.003c.949-9.49 1.286-12.858-5.942-16.684l8.412-1.928.876-9.112-46.967-.35c-7.265 0-24.185 7.885-25.587 24.707-1.402 16.821 1.928 22.428 5.433 24.531-7.01 4.906-18.752 25.232 7.536 31.015l28.391.526c1.051-.059 3.189.525 3.329 3.329l-310.194-1.227c-7.836 7.493-14.116 14.754-19.01 20.414-15.138 17.502-17.033 19.693-10.782-33.906h29.792c6.485-1.343 20.154-7.535 22.958-21.553l2.278-25.933c-.058-6.892-4.135-20.852-19.978-21.553H49.72c-7.127-.175-22.222 6.904-24.185 24.006l-5.783 58.525c-6.134.701-18.191-1.857-18.752-12.09Zm211.177-19.976h14.721c2.279 0 4.732-3.154 4.907-7.184.048-1.098-.495-3.121-1.264-5.732-3.177-10.774-9.601-37.549 18.79-37.549h18.751l-1.402 18.574h-14.195c-2.045.234-6.484 2.278-5.082 8.06.152.627.421 1.495.75 2.556 3.482 11.224 13.654 44.011-37.903 39.849l1.927-18.574Zm96.564-50.465-1.928 17.698h-17.525l-2.629 27.86c-.234 1.461.175 4.416 3.68 4.557 3.505.14 10.223.058 13.144 0l-1.402 19.099-15.072-.35c-7.243-.526-21.205-6.449-19.102-25.934 2.103-19.484 4.732-46.084 5.783-56.948l18.927-.35-1.577 14.368h17.701Zm6.659-14.193h18.752l-.876 9.813h-19.103l1.227-9.813Zm-1.752 16.997h18.401l-6.309 66.06-18.927.35 6.835-66.41Zm161.581 66.235h-48.545c-6.484-1.285-19.172-7.29-18.05-21.027a3597.76 3597.76 0 0 0 2.103-26.81c1.986-7.067 9.568-21.202 24.009-21.202h25.061c6.543.292 19.593 5.047 19.453 16.121-.141 11.074-1.11 22.487-1.578 26.81h-50.647c-.409 2.336-.28 7.043 3.505 7.184 3.785.14 32.421.292 46.266.35l-1.577 18.574Zm-18.577-50.114H433.87c-1.636 0-4.907 1.577-4.907 7.885l31.37.175c.292-2.687-.035-8.06-3.681-8.06Zm-97.089 1.051h21.907c1.46-.058 4.416.666 4.556 4.03l-.701 9.638c-.35 1.518-1.893 4.625-5.257 4.906-3.365.28-16.24.234-22.257.175-1.402-.058-4.136-1.297-3.856-5.782.351-5.608.176-12.792 5.608-12.967Z" stroke="#000"/></svg>
